X:276
T:score75
L:1/8
Q:1/4=96
M:1/8
I:linebreak $
K:Gmin
 (D |[M:6/8] G2 B d2 g | b>ag a2) (d | d>c=e d>ce | d3- d) z(D |$ G2 B d2 f | _a>gf g2) (G | %7
 G>^FA G>FB |[M:5/8] G3-) G2 |] %9
